public/customer/4.svg

<svg width="250" height="98" viewBox="0 0 250 98" fill="none" xmlns="http://www.w3.org/2000/svg">
<path fill-rule="evenodd" clip-rule="evenodd" d="M63.1358 31.7303H40.8364V22.419H72.5957V53.6784H63.1358V31.7303Z" fill="white" fill-opacity="0.6"/>
<path fill-rule="evenodd" clip-rule="evenodd" d="M45.7171 50.2582C44.2726 49.3082 42.5742 48.8011 40.8367 48.8011V39.4897C44.4452 39.4897 47.9727 40.543 50.973 42.5162C53.9733 44.4893 56.3117 47.294 57.6927 50.5753C59.0736 53.8563 59.4351 57.4674 58.7311 60.9507C58.0271 64.4339 56.2896 67.6339 53.7377 70.1451C51.1861 72.6569 47.9352 74.3671 44.3961 75.06C40.857 75.7529 37.1886 75.3972 33.8548 74.0379C30.521 72.6787 27.6716 70.3773 25.6668 67.424C23.6621 64.4707 22.592 60.9991 22.592 57.4472H32.0523C32.0523 59.1574 32.5675 60.8292 33.5327 62.2508C34.4979 63.6728 35.8699 64.7812 37.475 65.4352C39.0802 66.0898 40.8465 66.2608 42.5505 65.9274C44.2545 65.594 45.8198 64.7705 47.0483 63.561C48.2768 62.352 49.1135 60.8111 49.4525 59.134C49.7914 57.4568 49.6175 55.7183 48.9526 54.1386C48.2877 52.5587 47.1618 51.2083 45.7171 50.2582Z" fill="white" fill-opacity="0.6"/>
<path d="M87.4622 68.1105V29.0443H102.148C105.323 29.0443 107.95 29.5652 110.029 30.607C112.108 31.6487 113.658 33.0812 114.679 34.9042C115.699 36.7273 116.209 38.7736 116.209 41.0431C116.209 43.2011 115.718 45.1916 114.735 47.0147C113.752 48.8005 112.221 50.2516 110.142 51.3677C108.063 52.4467 105.398 52.9862 102.148 52.9862H94.7197V68.1105H87.4622ZM94.7197 47.1821H101.694C104.227 47.1821 106.041 46.6426 107.137 45.5637C108.271 44.4475 108.838 42.9407 108.838 41.0431C108.838 39.1085 108.271 37.6016 107.137 36.5227C106.041 35.4065 104.227 34.8484 101.694 34.8484H94.7197V47.1821Z" fill="white" fill-opacity="0.6"/>
<path d="M131.123 68.78C128.288 68.78 125.775 68.1846 123.582 66.9942C121.39 65.8033 119.67 64.1293 118.423 61.9712C117.175 59.8136 116.551 57.3204 116.551 54.4928C116.551 51.6282 117.156 49.0796 118.366 46.8473C119.613 44.615 121.314 42.8849 123.469 41.6571C125.661 40.3921 128.232 39.7596 131.18 39.7596C133.94 39.7596 136.378 40.3549 138.495 41.5455C140.611 42.7361 142.256 44.3731 143.427 46.4566C144.637 48.5029 145.242 50.7911 145.242 53.3211C145.242 53.7301 145.223 54.1583 145.186 54.6047C145.186 55.051 145.167 55.516 145.129 56.0001H123.752C123.904 58.1577 124.66 59.8509 126.021 61.0785C127.419 62.3062 129.101 62.9203 131.067 62.9203C132.541 62.9203 133.769 62.6039 134.752 61.9712C135.773 61.3017 136.529 60.4458 137.021 59.404H144.392C143.863 61.1531 142.974 62.7525 141.727 64.2039C140.517 65.6174 139.005 66.7338 137.19 67.5524C135.414 68.371 133.392 68.78 131.123 68.78ZM131.18 45.5637C129.404 45.5637 127.835 46.0659 126.474 47.0705C125.113 48.0379 124.244 49.5261 123.866 51.5352H137.871C137.758 49.7121 137.077 48.2611 135.83 47.1821C134.582 46.1032 133.032 45.5637 131.18 45.5637Z" fill="white" fill-opacity="0.6"/>
<path d="M148.511 68.1106V40.4293H154.918L155.485 45.1172C156.355 43.4802 157.602 42.1779 159.228 41.2106C160.891 40.2432 162.838 39.7596 165.068 39.7596C168.545 39.7596 171.248 40.8385 173.176 42.9965C175.104 45.1544 176.068 48.3169 176.068 52.4839V68.1106H168.81V53.1536C168.81 50.7725 168.319 48.9494 167.336 47.6844C166.353 46.4194 164.822 45.7869 162.743 45.7869C160.702 45.7869 159.02 46.4938 157.697 47.9076C156.412 49.3215 155.769 51.2933 155.769 53.8233V68.1106H148.511Z" fill="white" fill-opacity="0.6"/>
<path d="M192.704 68.1105C189.755 68.1105 187.393 67.4032 185.616 65.9897C183.84 64.5756 182.951 62.0644 182.951 58.4554V46.4008H178.131V40.4293H182.951L183.802 33.0067H190.209V40.4293H197.807V46.4008H190.209V58.5113C190.209 59.8508 190.492 60.7808 191.059 61.3017C191.664 61.7853 192.685 62.0271 194.121 62.0271H197.637V68.1105H192.704Z" fill="white" fill-opacity="0.6"/>
<path d="M210.899 68.78C208.48 68.78 206.495 68.4078 204.945 67.6637C203.396 66.8824 202.243 65.8592 201.486 64.5943C200.73 63.3293 200.353 61.9344 200.353 60.4085C200.353 57.8413 201.373 55.7583 203.414 54.1583C205.456 52.5583 208.518 51.7584 212.6 51.7584H219.745V51.0887C219.745 49.1912 219.196 47.796 218.1 46.9031C217.004 46.0102 215.643 45.5637 214.018 45.5637C212.543 45.5637 211.258 45.9171 210.162 46.6241C209.066 47.2938 208.385 48.2983 208.121 49.6377H201.033C201.222 47.6286 201.903 45.88 203.074 44.3917C204.284 42.9035 205.834 41.7687 207.724 40.9874C209.614 40.1688 211.73 39.7596 214.074 39.7596C218.081 39.7596 221.238 40.7456 223.543 42.7174C225.849 44.6894 227.002 47.4797 227.002 51.0887V68.1106H220.822L220.141 63.6457C219.309 65.1338 218.138 66.3615 216.626 67.3292C215.151 68.2964 213.243 68.78 210.899 68.78ZM212.543 63.1994C214.622 63.1994 216.229 62.5294 217.363 61.1898C218.535 59.8509 219.272 58.195 219.574 56.2233H213.394C211.466 56.2233 210.087 56.5764 209.255 57.2837C208.423 57.9532 208.008 58.7904 208.008 59.7949C208.008 60.874 208.423 61.7107 209.255 62.3062C210.087 62.9016 211.182 63.1994 212.543 63.1994Z" fill="white" fill-opacity="0.6"/>
</svg>

<svg xmlns="http://www.w3.org/2000/svg" width="250" height="98" fill="none"><path fill="#fff" fill-opacity=".6" fill-rule="evenodd" d="M63.136 31.73h-22.3V22.42h31.76v31.26h-9.46V31.73ZM45.717 50.258a8.885 8.885 0 0 0-4.88-1.457V39.49c3.608 0 7.136 1.053 10.136 3.026 3 1.973 5.339 4.778 6.72 8.06A17.695 17.695 0 0 1 58.73 60.95a17.87 17.87 0 0 1-4.993 9.194 18.335 18.335 0 0 1-9.342 4.915c-3.539.693-7.207.337-10.541-1.022a18.185 18.185 0 0 1-8.188-6.614 17.758 17.758 0 0 1-3.075-9.977h9.46a8.55 8.55 0 0 0 1.48 4.804 8.752 8.752 0 0 0 3.943 3.184 8.916 8.916 0 0 0 5.075.492 8.825 8.825 0 0 0 4.498-2.366 8.605 8.605 0 0 0 2.404-4.427 8.52 8.52 0 0 0-.5-4.995 8.677 8.677 0 0 0-3.235-3.88Z" clip-rule="evenodd"/><path fill="#fff" fill-opacity=".6" d="M87.462 68.11V29.044h14.686c3.175 0 5.802.521 7.881 1.563 2.079 1.042 3.629 2.474 4.65 4.297 1.02 1.823 1.53 3.87 1.53 6.14 0 2.157-.491 4.148-1.474 5.97-.983 1.786-2.514 3.238-4.593 4.354-2.079 1.079-4.744 1.618-7.994 1.618H94.72v15.125h-7.258Zm7.258-20.928h6.974c2.533 0 4.347-.54 5.443-1.618 1.134-1.117 1.701-2.623 1.701-4.52 0-1.935-.567-3.442-1.701-4.521-1.096-1.117-2.91-1.675-5.443-1.675H94.72v12.334ZM131.123 68.78c-2.835 0-5.348-.595-7.541-1.786a13.034 13.034 0 0 1-5.159-5.023c-1.248-2.157-1.872-4.65-1.872-7.478 0-2.865.605-5.413 1.815-7.646 1.247-2.232 2.948-3.962 5.103-5.19 2.192-1.265 4.763-1.897 7.711-1.897 2.76 0 5.198.595 7.315 1.785 2.116 1.191 3.761 2.828 4.932 4.912 1.21 2.046 1.815 4.334 1.815 6.864 0 .41-.019.837-.056 1.284 0 .446-.019.911-.057 1.395h-21.377c.152 2.158.908 3.85 2.269 5.078 1.398 1.228 3.08 1.842 5.046 1.842 1.474 0 2.702-.316 3.685-.949 1.021-.67 1.777-1.525 2.269-2.567h7.371c-.529 1.75-1.418 3.348-2.665 4.8-1.21 1.413-2.722 2.53-4.537 3.348-1.776.819-3.798 1.228-6.067 1.228Zm.057-23.216c-1.776 0-3.345.502-4.706 1.507-1.361.967-2.23 2.455-2.608 4.464h14.005c-.113-1.823-.794-3.274-2.041-4.353-1.248-1.079-2.798-1.618-4.65-1.618ZM148.511 68.11V40.43h6.407l.567 4.687c.87-1.637 2.117-2.94 3.743-3.906 1.663-.968 3.61-1.451 5.84-1.451 3.477 0 6.18 1.079 8.108 3.236 1.928 2.158 2.892 5.32 2.892 9.488V68.11h-7.258V53.154c0-2.382-.491-4.205-1.474-5.47-.983-1.265-2.514-1.897-4.593-1.897-2.041 0-3.723.707-5.046 2.12-1.285 1.415-1.928 3.386-1.928 5.916v14.288h-7.258ZM192.704 68.11c-2.949 0-5.311-.707-7.088-2.12-1.776-1.414-2.665-3.926-2.665-7.535V46.401h-4.82v-5.972h4.82l.851-7.422h6.407v7.422h7.598v5.972h-7.598v12.11c0 1.34.283 2.27.85 2.79.605.484 1.626.726 3.062.726h3.516v6.084h-4.933ZM210.899 68.78c-2.419 0-4.404-.372-5.954-1.116-1.549-.782-2.702-1.805-3.459-3.07-.756-1.265-1.133-2.66-1.133-4.185 0-2.568 1.02-4.65 3.061-6.25 2.042-1.6 5.104-2.4 9.186-2.4h7.145v-.67c0-1.898-.549-3.293-1.645-4.186-1.096-.893-2.457-1.34-4.082-1.34-1.475 0-2.76.354-3.856 1.061-1.096.67-1.777 1.674-2.041 3.014h-7.088c.189-2.01.87-3.758 2.041-5.246 1.21-1.489 2.76-2.623 4.65-3.405 1.89-.818 4.006-1.227 6.35-1.227 4.007 0 7.164.986 9.469 2.957 2.306 1.972 3.459 4.763 3.459 8.372V68.11h-6.18l-.681-4.465c-.832 1.488-2.003 2.716-3.515 3.683-1.475.967-3.383 1.451-5.727 1.451Zm1.644-5.58c2.079 0 3.686-.67 4.82-2.01 1.172-1.34 1.909-2.995 2.211-4.967h-6.18c-1.928 0-3.307.353-4.139 1.06-.832.67-1.247 1.507-1.247 2.512 0 1.079.415 1.916 1.247 2.511.832.596 1.927.893 3.288.893Z"/></svg>
